X: 796
T: Xin kaihua
%%abc-version 2.0
%%abcx-abcm2ps-target-version 5.9.1 (29 Sep 2008)
%%abc-creator hum2abc beta
%%abcx-conversion-date 2013/10/02 07:52:31
%%abc-edited-by Helmut Schaffrath
%%humdrum-veritas 2782868742
%%humdrum-veritas-data 535345369
%%continueall 1
%%barnumbers 0
L: 1/8
M: 2/4
K: G
e e d B [I:setbarnb 1]| 
e ed2 | 
e e d e | 
c> BA2 | 
d d/ d/ d e | 
A BG2 | 
F ED2 | 
d d A B | 
D> E G A | 
F ED2 |]  



